src/cmd/lc_insertindexesentry.svg

<svg viewBox="0 0 24 24" xmlns="http://www.w3.org/2000/svg"><path d="m5.5 4c-.831 0-1.5.669-1.5 1.5s.669 1.5 1.5 1.5 1.5-.669 1.5-1.5-.669-1.5-1.5-1.5zm2.5 0v1h8v-1zm10 0v1h2v-1zm-10 2v1h3v-1zm6 0v1h6v-1zm-8.5 11c-.831 0-1.5.669-1.5 1.5s.669 1.5 1.5 1.5 1.5-.669 1.5-1.5-.669-1.5-1.5-1.5zm2.5 0v1h8v-1zm10 0v1h2v-1zm-10 2v1h3v-1zm6 0v1h6v-1z" fill="#232629"/><path d="m5.5 10c-.831 0-1.5.669-1.5 1.5s.669 1.5 1.5 1.5 1.5-.669 1.5-1.5-.669-1.5-1.5-1.5zm2.5 0v1h8v-1zm10 0v1h2v-1zm-10 2v1h3v-1zm6 0v1h6v-1z" fill="#762572"/></svg>

<?xml version="1.0" encoding="UTF-8" standalone="no"?>
<svg
   xmlns:dc="http://purl.org/dc/elements/1.1/"
   xmlns:cc="http://creativecommons.org/ns#"
   xmlns:rdf="http://www.w3.org/1999/02/22-rdf-syntax-ns#"
   xmlns:svg="http://www.w3.org/2000/svg"
   xmlns="http://www.w3.org/2000/svg"
   xmlns:sodipodi="http://sodipodi.sourceforge.net/DTD/sodipodi-0.dtd"
   xmlns:inkscape="http://www.inkscape.org/namespaces/inkscape"
   viewBox="0 0 24 24"
   version="1.1"
   id="svg6"
   sodipodi:docname="lc_insertindexesentry.svg"
   inkscape:version="0.92.4 (5da689c313, 2019-01-14)">
  <metadata
     id="metadata12">
    <rdf:RDF>
      <cc:Work
         rdf:about="">
        <dc:format>image/svg+xml</dc:format>
        <dc:type
           rdf:resource="http://purl.org/dc/dcmitype/StillImage" />
      </cc:Work>
    </rdf:RDF>
  </metadata>
  <defs
     id="defs10" />
  <sodipodi:namedview
     pagecolor="#ffffff"
     bordercolor="#666666"
     borderopacity="1"
     objecttolerance="10"
     gridtolerance="10"
     guidetolerance="10"
     inkscape:pageopacity="0"
     inkscape:pageshadow="2"
     inkscape:window-width="1920"
     inkscape:window-height="1011"
     id="namedview8"
     showgrid="true"
     inkscape:zoom="27.812867"
     inkscape:cx="7.0703051"
     inkscape:cy="14.012367"
     inkscape:window-x="0"
     inkscape:window-y="32"
     inkscape:window-maximized="1"
     inkscape:current-layer="svg6">
    <inkscape:grid
       type="xygrid"
       id="grid822" />
  </sodipodi:namedview>
  <path
     d="M 5.5,4 C 4.669,4 4,4.669 4,5.5 4,6.331 4.669,7 5.5,7 6.331,7 7,6.331 7,5.5 7,4.669 6.331,4 5.5,4 Z M 8,4 V 5 H 20 V 4 Z M 8,6 V 7 H 20 V 6 Z M 5.5,17 C 4.669,17 4,17.669 4,18.5 4,19.331 4.669,20 5.5,20 6.331,20 7,19.331 7,18.5 7,17.669 6.331,17 5.5,17 Z M 8,17 v 1 h 12 v -1 z m 0,2 v 1 h 12 v -1 z"
     id="path2"
     inkscape:connector-curvature="0"
     style="fill:#232629"
     sodipodi:nodetypes="sssssccccccccccssssscccccccccc" />
  <path
     d="M 5.5,10 C 4.669,10 4,10.669 4,11.5 4,12.331 4.669,13 5.5,13 6.331,13 7,12.331 7,11.5 7,10.669 6.331,10 5.5,10 Z M 8,10 v 1 h 12 v -1 z m 0,2 v 1 h 12 v -1 z"
     id="path4"
     inkscape:connector-curvature="0"
     style="fill:#762572"
     sodipodi:nodetypes="ssssscccccccccc" />
</svg>
